assets/logos/we-chat.svg

<svg width="80" height="80" viewBox="0 0 80 80" fill="none" xmlns="http://www.w3.org/2000/svg">
<circle cx="39.9999" cy="40" r="32" fill="url(#paint0_linear_9912_888)"/>
<path fill-rule="evenodd" clip-rule="evenodd" d="M34.5329 21.8667C41.594 21.8667 47.6995 25.7581 49.725 31.5535C49.8228 31.8335 49.7774 32.1437 49.6036 32.3841C49.4244 32.6181 49.1476 32.7565 48.8529 32.7594L48.5863 32.7468C40.0873 32.7468 33.173 38.4424 33.173 45.4401C33.1791 46.2454 33.2777 47.0472 33.4668 47.83C33.4907 47.9318 33.4968 48.0371 33.4848 48.141C33.4274 48.6384 32.9777 48.9952 32.4803 48.9379C31.1082 48.7856 29.7582 48.4765 28.4565 48.0168L23.6584 50.7603C23.3906 50.9191 23.06 50.9293 22.7829 50.7874C22.3371 50.5592 22.1609 50.0129 22.3891 49.5672L24.2622 45.8208C20.8264 43.4827 18.7399 39.6219 18.6663 35.4667C18.6663 27.9667 25.7836 21.8667 34.5329 21.8667ZM25.9195 30.0268C25.9195 28.5246 27.1373 27.3068 28.6395 27.3068C30.1417 27.3068 31.3595 28.5246 31.3595 30.0268C31.3595 31.529 30.1417 32.7468 28.6395 32.7468C27.1373 32.7468 25.9195 31.529 25.9195 30.0268ZM39.5193 27.3068C38.0171 27.3068 36.7993 28.5246 36.7993 30.0268C36.7993 31.529 38.0171 32.7468 39.5193 32.7468C41.0215 32.7468 42.2393 31.529 42.2393 30.0268C42.2393 28.5246 41.0215 27.3068 39.5193 27.3068ZM48.5864 34.5599C56.0863 34.5599 62.1863 39.4396 62.1863 45.4399C62.0593 48.8786 60.2112 52.0228 57.2686 53.8066L58.4998 56.8893C58.5962 57.13 58.585 57.4004 58.4689 57.6323C58.2447 58.0801 57.7 58.2613 57.2523 58.0372L52.757 55.7904C51.3946 56.1415 49.9933 56.3194 48.5864 56.3199C41.0864 56.3199 34.9864 51.4402 34.9864 45.4399C34.9864 39.4396 41.0864 34.5599 48.5864 34.5599ZM42.2399 41.8133C42.2399 40.8119 43.0517 40 44.0532 40C45.0546 40 45.8665 40.8119 45.8665 41.8133C45.8665 42.8148 45.0546 43.6266 44.0532 43.6266C43.0517 43.6266 42.2399 42.8148 42.2399 41.8133ZM53.1198 40C52.1183 40 51.3065 40.8118 51.3065 41.8133C51.3065 42.8148 52.1183 43.6266 53.1198 43.6266C54.1213 43.6266 54.9331 42.8148 54.9331 41.8133C54.9332 40.8118 54.1213 40 53.1198 40Z" fill="white"/>
<defs>
<linearGradient id="paint0_linear_9912_888" x1="39.9999" y1="8" x2="39.9999" y2="72" gradientUnits="userSpaceOnUse">
<stop stop-color="#02E16E"/>
<stop offset="1" stop-color="#07C361"/>
</linearGradient>
</defs>
</svg>

<svg xmlns="http://www.w3.org/2000/svg" width="80" height="80" fill="none" viewBox="0 0 80 80"><circle cx="40" cy="40" r="32" fill="url(#a)"/><path fill="#fff" fill-rule="evenodd" d="M34.533 21.867c7.061 0 13.167 3.891 15.192 9.686a.91.91 0 0 1-.121.831.96.96 0 0 1-.751.375l-.267-.012c-8.499 0-15.413 5.695-15.413 12.693.006.805.105 1.607.294 2.39a.906.906 0 0 1-.987 1.108 18 18 0 0 1-4.023-.921l-4.799 2.743a.907.907 0 0 1-1.269-1.193l1.873-3.746a12.8 12.8 0 0 1-5.596-10.354c0-7.5 7.118-13.6 15.867-13.6m-8.614 8.16a2.72 2.72 0 1 1 5.44 0 2.72 2.72 0 0 1-5.44 0m13.6-2.72a2.72 2.72 0 1 0 0 5.44 2.72 2.72 0 0 0 0-5.44m9.067 7.253c7.5 0 13.6 4.88 13.6 10.88a10.23 10.23 0 0 1-4.917 8.367l1.23 3.082a.907.907 0 0 1-1.247 1.148l-4.495-2.247a16.7 16.7 0 0 1-4.17.53c-7.5 0-13.6-4.88-13.6-10.88s6.1-10.88 13.6-10.88m-6.346 7.253a1.813 1.813 0 1 1 3.627 0 1.813 1.813 0 0 1-3.627 0M53.12 40a1.813 1.813 0 1 0 0 3.626 1.813 1.813 0 0 0 0-3.626" clip-rule="evenodd"/><defs><linearGradient id="a" x1="40" x2="40" y1="8" y2="72" gradientUnits="userSpaceOnUse"><stop stop-color="#02e16e"/><stop offset="1" stop-color="#07c361"/></linearGradient></defs></svg>
